packages/foundations/assets/icons/functional/images/transportation/electric_car_32.svg

<svg width="32" height="32" viewBox="0 0 32 32" fill="none" xmlns="http://www.w3.org/2000/svg">
<g clip-path="url(#clip0_187_903)">
<path fill-rule="evenodd" clip-rule="evenodd" d="M22.2675 4.75317C23.1271 4.82129 23.946 5.21794 24.4962 5.86C24.8556 6.27937 24.8069 6.91066 24.3875 7.27003C24.0004 7.60176 23.3851 7.60176 22.9775 7.16138C22.7811 6.93216 22.4552 6.77432 22.128 6.74821C20.0373 6.58276 17.828 6.50004 15.5 6.50004C13.8333 6.50004 11.973 6.58145 9.91887 6.74427C9.38447 6.80195 9 7.00004 8.83908 7.51662C8.40467 9.17736 7.97231 10.8385 7.542 12.5C10.6807 12.3995 12.8895 12.3382 14.1684 12.3163C15.4474 12.2943 16.7268 12.2956 18.0066 12.3203C18 11 19.5599 9.50004 21 9.50004C21 8.92653 21.5012 8.50004 22 8.50004H25C25.5 8.50004 26 9.00004 25.9916 9.50017C27.4461 9.50004 29 11 29 12.5C29.5 12.5 30 13 30 13.5C30 13.8334 30 14.1667 30 14.5C30 15 29.5 15.5 28.999 15.5C28.9997 17.1667 29 20.1667 29 24.5C29 26.0661 27.5 27.5001 26 27.5001H21C19.5605 27.5001 18 26 18 24.5L18.0013 23.9901C17.0006 24.0113 16.0001 24.0146 15 24C14 24 12.5 24 10.9994 23.8882C10.9998 23.9628 11 24.1666 11 24.4996C11 25.8624 10.1069 26.5 9 26.5H7C5.92052 26.5 4.99935 25.8338 4.99935 24.4996C4.99935 23.6102 4.99935 22.8248 4.99935 22.1435C4.72087 21.7733 4.53108 21.3255 4.44828 20.8088C4.15836 18.931 4.00971 17.1611 4.00235 15.4991L3 15.5C2.448 15.5 2 15.052 2 14.5V13.5C2 12.947 2.448 12.5 3 12.5H5.476L6.90113 7.02243C7.22324 5.73396 8.33533 4.90357 9.74982 4.75195C11.3279 4.58385 13.2446 4.49988 15.5 4.50004C18.8861 4.49981 18.8919 4.48565 22.2675 4.75317ZM19.9995 24.5592C19.9995 25.0417 20.3626 25.4394 20.8299 25.4937L20.9395 25.5H26.0605C26.542 25.5 26.9389 25.1371 26.9932 24.669L26.9995 24.5592L27 12.5C27 12.0517 26.5689 11.5737 26.107 11.5077L26 11.5H21C20.5818 11.5 20.1362 11.8767 20.0258 12.3031L20.0066 12.4011L20 12.5234L19.9995 24.5592ZM6.99991 23.3134L7 24.493L7.18368 24.4996L8.89556 24.4984L9 24.493L8.9992 23.6917C8.42533 23.6137 7.88651 23.5184 7.37681 23.4034L6.99991 23.3134ZM16.5307 14.3017L15.1896 14.3037L14.2729 14.3149L12.51 14.3499L10.8867 14.3929L7.58587 14.5C6.59972 14.5 6.2533 14.6917 6.11229 15.0785C6.08896 15.1425 6.06929 15.2087 6.05321 15.2803L6.03177 15.3921L6.00961 15.5798L6.00299 15.6849L5.99855 15.9222L6.00071 16.0564L6.008 16.249L6.12403 16.2578L8.12403 16.5078C8.67205 16.5763 9.06078 17.0761 8.99228 17.6241C8.92867 18.1329 8.49318 18.5045 7.99252 18.5001L7.87597 18.4923L6.188 18.281L6.40921 20.3817C6.45436 20.8485 6.65193 21.1056 7.04128 21.2481L7.16388 21.2875C8.50017 21.6637 10.1312 21.8655 12.2014 21.9488L12.874 21.9714L13.5325 21.9863L14.7994 21.9982L16.9275 21.9992L17.999 21.989V20.5H12.25C11.8019 20.5 11.414 20.2031 11.2906 19.7822L11.2636 19.6644L11.0136 18.1644C10.9228 17.6197 11.2908 17.1044 11.8356 17.0136C12.3415 16.9293 12.8218 17.2406 12.9606 17.7217L12.9864 17.8356L13.097 18.5H17.999V14.319L17.7287 14.3149L16.5307 14.3017ZM23.1056 15.0528C23.3526 14.5588 23.9532 14.3586 24.4472 14.6056C24.9059 14.835 25.1711 15.3978 24.8944 15.9473C24.6368 16.4671 24.378 16.9847 24.118 17.5H24.5C25.2043 17.5 25.7463 18.2403 25.3944 18.9473L23.8944 21.9473C23.6474 22.4412 23.0468 22.6415 22.5528 22.3945C22.0941 22.1651 21.8454 21.5786 22.1056 21.0528C22.3628 20.533 22.6213 20.0154 22.881 19.5H22.5C21.7957 19.5 21.2586 18.75 21.6056 18.0528L23.1056 15.0528Z" fill="#1A1C1F"/>
</g>
<defs>
<clipPath id="clip0_187_903">
<rect width="32" height="32" fill="white"/>
</clipPath>
</defs>
</svg>

<svg xmlns="http://www.w3.org/2000/svg" width="32" height="32" fill="none"><g clip-path="url(#a)"><path fill="#1A1C1F" fill-rule="evenodd" d="M22.268 4.753c.86.068 1.678.465 2.228 1.107a1 1 0 0 1-.108 1.41c-.388.332-1.003.332-1.41-.109a1.28 1.28 0 0 0-.85-.413Q18.992 6.5 15.5 6.5q-2.5 0-5.581.244c-.535.058-.919.256-1.08.773q-.651 2.49-1.297 4.983 4.709-.15 6.626-.184 1.92-.033 3.839.004C18 11 19.56 9.5 21 9.5c0-.573.501-1 1-1h3c.5 0 1 .5.992 1C27.446 9.5 29 11 29 12.5c.5 0 1 .5 1 1v1c0 .5-.5 1-1.001 1l.001 9c0 1.566-1.5 3-3 3h-5c-1.44 0-3-1.5-3-3l.001-.51q-1.5.032-3.001.01c-1 0-2.5 0-4-.112v.612c0 1.362-.893 2-2 2H7c-1.08 0-2-.666-2-2v-2.357a3 3 0 0 1-.552-1.334q-.434-2.817-.446-5.31L3 15.5a1 1 0 0 1-1-1v-1a1 1 0 0 1 1-1h2.476l1.425-5.478c.322-1.288 1.434-2.118 2.849-2.27Q12.117 4.5 15.5 4.5c3.386 0 3.392-.014 6.767.253M20 24.56c0 .483.363.88.83.935l.11.006h5.12a.94.94 0 0 0 .933-.831l.007-.11V12.5c0-.448-.431-.926-.893-.992L26 11.5h-5c-.418 0-.864.377-.974.803l-.02.098-.006.122zM7 23.313v1.18l.184.007 1.712-.002.104-.005v-.801a19 19 0 0 1-1.623-.289zm9.53-9.011-1.34.002-.917.01-1.763.036-1.623.043-3.301.107c-.986 0-1.333.192-1.474.579q-.035.095-.059.201l-.021.112-.022.188-.007.105-.004.237.002.134.007.193.116.009 2 .25a1 1 0 0 1-.131 1.992l-.117-.008-1.688-.211.221 2.1c.045.468.243.725.632.867l.123.04c1.336.376 2.967.578 5.037.66l.673.023.659.015 1.266.012 2.128.001L18 21.99V20.5H12.25a1 1 0 0 1-.96-.718l-.026-.118-.25-1.5a1 1 0 0 1 1.947-.442l.025.114.111.664h4.902v-4.181l-.27-.004zm6.576.75a1 1 0 0 1 1.341-.446c.459.229.724.792.447 1.341q-.386.78-.776 1.553h.382c.704 0 1.246.74.894 1.447l-1.5 3a1 1 0 1 1-1.788-.894q.385-.78.775-1.553H22.5c-.704 0-1.241-.75-.894-1.447z" clip-rule="evenodd"/></g><defs><clipPath id="a"><path fill="#fff" d="M0 0h32v32H0z"/></clipPath></defs></svg>
